actions/16/list-add.svg

<?xml version="1.0" encoding="UTF-8" standalone="no"?>
<!-- Created with Inkscape (http://www.inkscape.org/) -->

<svg
   xmlns:svg="http://www.w3.org/2000/svg"
   xmlns="http://www.w3.org/2000/svg"
   xmlns:xlink="http://www.w3.org/1999/xlink"
   version="1.0"
   width="16"
   height="16"
   id="svg3247">
  <defs
     id="defs3249">
    <linearGradient
       id="linearGradient2264">
      <stop
         id="stop2266"
         style="stop-color:#d7e866;stop-opacity:1"
         offset="0" />
      <stop
         id="stop2268"
         style="stop-color:#8cab2a;stop-opacity:1"
         offset="1" />
    </linearGradient>
    <linearGradient
       x1="24.103895"
       y1="15.180944"
       x2="24.103895"
       y2="34.224861"
       id="linearGradient2401"
       xlink:href="#linearGradient2264"
       gradientUnits="userSpaceOnUse"
       gradientTransform="matrix(0.709648,0,0,0.7053673,-8.9450299,-8.2362938)" />
    <linearGradient
       id="linearGradient3180">
      <stop
         id="stop3182"
         style="stop-color:white;stop-opacity:1"
         offset="0" />
      <stop
         id="stop3184"
         style="stop-color:white;stop-opacity:0"
         offset="1" />
    </linearGradient>
    <linearGradient
       x1="8"
       y1="0"
       x2="8"
       y2="16.004318"
       id="linearGradient3190"
       xlink:href="#linearGradient3180"
       gradientUnits="userSpaceOnUse" />
  </defs>
  <g
     id="layer1">
    <path
       d="m 5.5,5.5 0,-5 5,0 0,5 5,0 0,5 -5,0 0,5 -5,0 0,-5 -5,0 0,-5 5,0 z"
       id="path2262"
       style="fill:url(#linearGradient2401);fill-opacity:1;fill-rule:evenodd;stroke:#699536;stroke-width:1;stroke-linecap:butt;stroke-linejoin:round;stroke-miterlimit:4;stroke-opacity:1;stroke-dasharray:none;display:inline" />
    <path
       d="m 6.5,1.5 0,4 c -0.00481,0.5502805 -0.4497195,0.995191 -1,1 l -4,0 0,3 4,0 c 0.5502805,0.00481 0.995191,0.4497195 1,1 l 0,4 3,0 0,-4 c 0.00481,-0.5502805 0.4497195,-0.995191 1,-1 l 4,0 0,-3 -4,0 C 9.9497195,6.495191 9.504809,6.0502805 9.5,5.5 l 0,-4 -3,0 z"
       id="path3188"
       style="opacity:0.4;fill:none;stroke:url(#linearGradient3190);stroke-width:1;stroke-linecap:butt;stroke-linejoin:miter;stroke-miterlimit:4;stroke-opacity:1;stroke-dasharray:none;display:inline" />
  </g>
</svg>

<?xml version="1.0" encoding="UTF-8" standalone="no"?>
<!-- Created with Inkscape (http://www.inkscape.org/) -->
<svg
   xmlns:svg="http://www.w3.org/2000/svg"
   xmlns="http://www.w3.org/2000/svg"
   xmlns:xlink="http://www.w3.org/1999/xlink"
   version="1.0"
   width="16"
   height="16"
   id="svg3247">
  <defs
     id="defs3249">
    <linearGradient
       id="linearGradient2264">
      <stop
         id="stop2266"
         style="stop-color:#d7e866;stop-opacity:1"
         offset="0" />
      <stop
         id="stop2268"
         style="stop-color:#8cab2a;stop-opacity:1"
         offset="1" />
    </linearGradient>
    <linearGradient
       x1="24.103895"
       y1="15.180944"
       x2="24.103895"
       y2="34.224861"
       id="linearGradient2401"
       xlink:href="#linearGradient2264"
       gradientUnits="userSpaceOnUse"
       gradientTransform="matrix(0.709648,0,0,0.7053673,-8.9450299,-8.2362938)" />
    <linearGradient
       id="linearGradient3180">
      <stop
         id="stop3182"
         style="stop-color:#ffffff;stop-opacity:1"
         offset="0" />
      <stop
         id="stop3184"
         style="stop-color:#ffffff;stop-opacity:0"
         offset="1" />
    </linearGradient>
    <linearGradient
       x1="8"
       y1="0"
       x2="8"
       y2="16.004318"
       id="linearGradient3190"
       xlink:href="#linearGradient3180"
       gradientUnits="userSpaceOnUse" />
  </defs>
  <g
     id="layer1">
    <path
       d="M 5.5,5.5 L 5.5,0.5 L 10.5,0.5 L 10.5,5.5 L 15.5,5.5 L 15.5,10.5 L 10.5,10.5 L 10.5,15.5 L 5.5,15.5 L 5.5,10.5 L 0.5,10.5 L 0.5,5.5 L 5.5,5.5 z"
       id="path2262"
       style="fill:url(#linearGradient2401);fill-opacity:1;fill-rule:evenodd;stroke:#699536;stroke-width:1;stroke-linecap:butt;stroke-linejoin:round;stroke-miterlimit:4;stroke-dasharray:none;stroke-opacity:1;display:inline" />
    <path
       d="M 6.5,1.5 L 6.5,5.5 C 6.495191,6.0502805 6.0502805,6.495191 5.5,6.5 L 1.5,6.5 L 1.5,9.5 L 5.5,9.5 C 6.0502805,9.504809 6.495191,9.9497195 6.5,10.5 L 6.5,14.5 L 9.5,14.5 L 9.5,10.5 C 9.504809,9.9497195 9.9497195,9.504809 10.5,9.5 L 14.5,9.5 L 14.5,6.5 L 10.5,6.5 C 9.9497195,6.495191 9.504809,6.0502805 9.5,5.5 L 9.5,1.5 L 6.5,1.5 z"
       id="path3188"
       style="opacity:0.4;fill:none;fill-opacity:1;fill-rule:evenodd;stroke:url(#linearGradient3190);stroke-width:1;stroke-linecap:butt;stroke-linejoin:miter;stroke-miterlimit:4;stroke-dasharray:none;stroke-opacity:1;display:inline" />
  </g>
</svg>
